X: 737
T: The Old Ark's a'Movin'
B: jims roots
M:4/4
L:1/8
Q: 1/4=100
K:DMaj
V:1 
"D"A2AB AGFG | A2 {c}d2 {c}d3e | f2 af "A"egfe | "D"dfed "G"Bcd2 |
"D"A2AB AGFG | A2 {c}d2 {c}d3e | f2 af "A"egfe |[1 "D"d3 cd4 :|[2 "D"d3 cd2 fg ||
|:"D"agfg a2af | "G"gfga b2ag | "D"fagf "A"egfe | "D"dfed "G"BcdB |
"D"A2AB AGFG | A2 {c}d2 {c}d3e | f2af "A"egfe | "D"d4 "G"B4 | "D"A3B AGFG |
A2 {c}d2 {c}d3e | f2af "A"egfe |[1 "D"d3 cd2 fg :|[2 "D"d3 cd4 |]
% abcbook-tune_id 6298c2794f46a68481088da7


% abcbook-boost 0
% abcbook-tablature 
% abcbook-transpose 
% abcbook-lastupdated 1654178425827
% abcbook-soundfonts 
% abcbook-repeats 1


